packages/web-ui-core/src/svg/EnergyIconActiveSkirk.svg

<svg viewBox="0 0 56 216" fill="none" xmlns="http://www.w3.org/2000/svg">
    <g>
        <path
            d="M28 206.125C27.7944 206.125 27.4179 206.004 26.707 205.293L16.707 195.293C16.1995 194.785 15.8464 194.432 15.5869 194.144C15.3293 193.857 15.2107 193.685 15.1445 193.553C15.0221 193.308 15 193.076 15 192L15 180C15 179.825 15.0974 179.567 15.332 179.332C15.5667 179.097 15.8253 179 16 179L40.0107 179C40.1776 179 40.4331 179.095 40.668 179.331C40.9022 179.566 41 179.825 41 180L41 192C41.0003 193.076 40.9779 193.308 40.8555 193.553C40.7893 193.685 40.6706 193.857 40.4131 194.144C40.2834 194.288 40.1303 194.448 39.9463 194.636L39.293 195.293L29.293 205.293C28.5822 206.004 28.2056 206.125 28 206.125Z"
            fill="#ECF8FF" stroke="#5757E0" stroke-width="2" />
        <path
            d="M16 151H40C40.1748 151 40.4333 151.097 40.668 151.332C40.9026 151.567 41 151.825 41 152V176C41 176.175 40.9026 176.433 40.668 176.668C40.4333 176.903 40.1748 177 40 177H16C15.8252 177 15.5667 176.903 15.332 176.668C15.0974 176.433 15 176.175 15 176V152C15 151.825 15.0974 151.567 15.332 151.332C15.5667 151.097 15.8252 151 16 151Z"
            fill="#E1F8FF" stroke="#5757E0" stroke-width="2" />
        <path
            d="M16 123H40C40.1748 123 40.4333 123.097 40.668 123.332C40.9026 123.567 41 123.825 41 124V148C41 148.175 40.9026 148.433 40.668 148.668C40.4333 148.903 40.1748 149 40 149H16C15.8252 149 15.5667 148.903 15.332 148.668C15.0974 148.433 15 148.175 15 148V124C15 123.825 15.0974 123.567 15.332 123.332C15.5667 123.097 15.8252 123 16 123Z"
            fill="#DBF2FF" stroke="#5757E0" stroke-width="2" />
        <path
            d="M16 95H40C40.1748 95 40.4333 95.0974 40.668 95.332C40.9026 95.5667 41 95.8252 41 96V120C41 120.175 40.9026 120.433 40.668 120.668C40.4333 120.903 40.1748 121 40 121H16C15.8252 121 15.5667 120.903 15.332 120.668C15.0974 120.433 15 120.175 15 120V96C15 95.8252 15.0974 95.5667 15.332 95.332C15.5667 95.0974 15.8252 95 16 95Z"
            fill="#D5D9FF" stroke="#5757E0" stroke-width="2" />
        <path
            d="M16 67H40C40.1748 67 40.4333 67.0974 40.668 67.332C40.9026 67.5667 41 67.8252 41 68V92C41 92.1748 40.9026 92.4333 40.668 92.668C40.4333 92.9026 40.1748 93 40 93H16C15.8252 93 15.5667 92.9026 15.332 92.668C15.0974 92.4333 15 92.1748 15 92V68C15 67.8252 15.0974 67.5667 15.332 67.332C15.5667 67.0974 15.8252 67 16 67Z"
            fill="#DCD5FF" stroke="#5757E0" stroke-width="2" />
        <path
            d="M28 38C27.7944 38 27.4179 38.1212 26.707 38.832L16.707 48.832C16.1995 49.3396 15.8464 49.6931 15.5869 49.9814C15.3293 50.2676 15.2107 50.44 15.1445 50.5723C15.0221 50.8172 15 51.0491 15 52.125L15 64.125C15 64.2997 15.0974 64.5583 15.332 64.793C15.5667 65.0276 15.8253 65.125 16 65.125L40.0107 65.125C40.1776 65.1249 40.4331 65.0296 40.668 64.7939C40.9022 64.5588 41 64.2999 41 64.125L41 52.125C41.0003 51.0493 40.9779 50.8171 40.8555 50.5723C40.7893 50.44 40.6706 50.2676 40.4131 49.9814C40.2834 49.8373 40.1303 49.677 39.9463 49.4893L39.293 48.832L29.293 38.832C28.5822 38.1212 28.2056 38 28 38Z"
            fill="#E4DCFF" stroke="#5757E0" stroke-width="2" />
        <g opacity="0.75" filter="url(#filter1_f_520_16)">
            <path
                d="M10.1509 28.3643C9.9497 28.1631 9.94971 27.8369 10.1509 27.6357L27.6357 10.1509C27.8369 9.94971 28.1631 9.94971 28.3643 10.1509L45.8491 27.6357C46.0503 27.8369 46.0503 28.1631 45.8491 28.3643L28.3643 45.8491C28.1631 46.0503 27.8369 46.0503 27.6357 45.8491L10.1509 28.3643Z"
                fill="#CD9A3C" />
        </g>
        <g filter="url(#filter2_dddf_520_16)">
            <path
                d="M13 30C10.0001 28 9.99995 28 12.9999 26C15.9998 24 18 22 20 20C22 18 23.9995 16 25.9997 13C28 10 28 10 29.9998 13C31.9995 16 34 18 36 20C38 22 40 24 43 26C46 28 46 28 43 30C40 32 38 34 36 36C34 38 31.9995 40 29.9998 43C28 46 28 46 25.9997 43C23.9995 40 22 38 20 36C18 34 15.9998 32 13 30Z"
                fill="#FFFFA5" />
        </g>
    </g>
    <defs>
        <filter id="filter1_f_520_16" x="7" y="7" width="42" height="42"
            filterUnits="userSpaceOnUse" color-interpolation-filters="sRGB">
            <feFlood flood-opacity="0" result="BackgroundImageFix" />
            <feBlend mode="normal" in="SourceGraphic" in2="BackgroundImageFix" result="shape" />
            <feGaussianBlur stdDeviation="1.5" result="effect1_foregroundBlur_520_16" />
        </filter>
        <filter id="filter2_dddf_520_16" x="-45.25" y="-27.25" width="146.5" height="146.5"
            filterUnits="userSpaceOnUse" color-interpolation-filters="sRGB">
            <feFlood flood-opacity="0" result="BackgroundImageFix" />
            <feColorMatrix in="SourceAlpha" type="matrix"
                values="0 0 0 0 0 0 0 0 0 0 0 0 0 0 0 0 0 0 127 0" result="hardAlpha" />
            <feOffset dy="18" />
            <feGaussianBlur stdDeviation="28" />
            <feColorMatrix type="matrix" values="0 0 0 0 0 0 0 0 0 0 0 0 0 0 0 0 0 0 0.01 0" />
            <feBlend mode="normal" in2="BackgroundImageFix" result="effect1_dropShadow_520_16" />
            <feColorMatrix in="SourceAlpha" type="matrix"
                values="0 0 0 0 0 0 0 0 0 0 0 0 0 0 0 0 0 0 127 0" result="hardAlpha" />
            <feOffset dy="10" />
            <feGaussianBlur stdDeviation="9" />
            <feColorMatrix type="matrix" values="0 0 0 0 0 0 0 0 0 0 0 0 0 0 0 0 0 0 0.01 0" />
            <feBlend mode="normal" in2="effect1_dropShadow_520_16"
                result="effect2_dropShadow_520_16" />
            <feColorMatrix in="SourceAlpha" type="matrix"
                values="0 0 0 0 0 0 0 0 0 0 0 0 0 0 0 0 0 0 127 0" result="hardAlpha" />
            <feOffset dy="4" />
            <feGaussianBlur stdDeviation="3" />
            <feColorMatrix type="matrix" values="0 0 0 0 0 0 0 0 0 0 0 0 0 0 0 0 0 0 0.01 0" />
            <feBlend mode="normal" in2="effect2_dropShadow_520_16"
                result="effect3_dropShadow_520_16" />
            <feBlend mode="normal" in="SourceGraphic" in2="effect3_dropShadow_520_16" result="shape" />
            <feGaussianBlur stdDeviation="0.5" result="effect4_foregroundBlur_520_16" />
        </filter>
    </defs>
</svg>

<?xml version="1.0" encoding="UTF-8"?>
<svg xmlns="http://www.w3.org/2000/svg" xmlns:xlink="http://www.w3.org/1999/xlink"
    viewBox="0 0 56 216">
    <defs>
        <filter id="b" x="1" y="1" width="54" height="54" filterUnits="userSpaceOnUse">
            <feOffset dx="0" dy="0" />
            <feGaussianBlur result="c" stdDeviation="3" />
            <feFlood flood-color="#cd9a3c" flood-opacity="1" />
            <feComposite in2="c" operator="in" />
            <feComposite in="SourceGraphic" />
        </filter>
        <filter id="d" x="7" y="7" width="42" height="42" filterUnits="userSpaceOnUse">
            <feOffset dx="0" dy="0" />
            <feGaussianBlur result="e" stdDeviation="1" />
            <feFlood flood-color="#ffec6f" flood-opacity="1" />
            <feComposite in2="e" operator="in" />
            <feComposite in="SourceGraphic" />
        </filter>
    </defs>
    <path
        d="M28,206.12c-.21,0-.58-.12-1.29-.83l-10-10c-.51-.51-.86-.86-1.12-1.15-.26-.29-.38-.46-.44-.59-.12-.24-.14-.48-.14-1.55v-12c0-.18.1-.43.33-.67.23-.24.49-.33.67-.33h24.01c.17,0,.42.1.66.33.23.24.33.49.33.67v12c0,1.08-.02,1.31-.14,1.55-.07.13-.18.3-.44.59-.13.14-.28.3-.47.49l-.65.66-10,10c-.71.71-1.09.83-1.29.83Z"
        fill="#ecf8ff" stroke="#5757e0" stroke-width="2" />
    <path
        d="M16,151h24c.17,0,.43.1.67.33.23.24.33.49.33.67v24c0,.18-.1.43-.33.67-.23.24-.49.33-.67.33h-24c-.17,0-.43-.1-.67-.33-.23-.24-.33-.49-.33-.67v-24c0-.18.1-.43.33-.67.23-.24.49-.33.67-.33Z"
        fill="#e1f8ff" stroke="#5757e0" stroke-width="2" />
    <path
        d="M16,123h24c.17,0,.43.1.67.33.23.24.33.49.33.67v24c0,.18-.1.43-.33.67-.23.24-.49.33-.67.33h-24c-.17,0-.43-.1-.67-.33-.23-.24-.33-.49-.33-.67v-24c0-.18.1-.43.33-.67.23-.24.49-.33.67-.33Z"
        fill="#dbf2ff" stroke="#5757e0" stroke-width="2" />
    <path
        d="M16,95h24c.17,0,.43.1.67.33.23.23.33.49.33.67v24c0,.18-.1.43-.33.67-.23.24-.49.33-.67.33h-24c-.17,0-.43-.1-.67-.33-.23-.24-.33-.49-.33-.67v-24c0-.17.1-.43.33-.67.23-.23.49-.33.67-.33Z"
        fill="#d5d9ff" stroke="#5757e0" stroke-width="2" />
    <path
        d="M16,67h24c.17,0,.43.1.67.33.23.23.33.49.33.67v24c0,.17-.1.43-.33.67-.23.23-.49.33-.67.33h-24c-.17,0-.43-.1-.67-.33-.23-.23-.33-.49-.33-.67v-24c0-.17.1-.43.33-.67.23-.23.49-.33.67-.33Z"
        fill="#dcd5ff" stroke="#5757e0" stroke-width="2" />
    <path
        d="M28,38c-.21,0-.58.12-1.29.83l-10,10c-.51.51-.86.86-1.12,1.15-.26.29-.38.46-.44.59-.12.24-.14.48-.14,1.55v12c0,.17.1.43.33.67.23.23.49.33.67.33h24.01c.17,0,.42-.1.66-.33.23-.24.33-.49.33-.67v-12c0-1.08-.02-1.31-.14-1.55-.07-.13-.18-.3-.44-.59-.13-.14-.28-.3-.47-.49l-.65-.66-10-10c-.71-.71-1.09-.83-1.29-.83Z"
        fill="#e4dcff" stroke="#5757e0" stroke-width="2" />
    <path
        d="M13,30q-3-2,0-4c3-2,5-4,7-6s4-4,6-7q2-3,4,0c2,3,4,5,6,7s4,4,7,6,3,2,0,4-5,4-7,6-4,4-6,7q-2,3-4,0c-2-3-4-5-6-7s-4-4-7-6Z"
        fill="#ffffa5" filter="url(#b)" />
    <path
        d="M13,30q-3-2,0-4c3-2,5-4,7-6s4-4,6-7q2-3,4,0c2,3,4,5,6,7s4,4,7,6,3,2,0,4-5,4-7,6-4,4-6,7q-2,3-4,0c-2-3-4-5-6-7s-4-4-7-6Z"
        fill="#ffffa5" filter="url(#d)" />
</svg>
